X:8515
T:Kesh, The
T:Kincora Jig, The
R:Jig
O:Ireland
M:6/8
K:G
G3 GAB|ABA ABd|edd gdd|edB dBA|\
G3 GAB|ABA ABd|edd gdB|AGF G2:|*
|:A|\
B3 dBd|ege dBG|BAB dBG|ABA AGA|\
B3 dBd|ege dBd|g2g aga|bgg g2:|
